X:1
T:Stand Up, Stand Up for Jesus
T:Text: George Duffield (1818-1888) Tune: George J. Webb (1803-1887)
T:76 76D WEBB www.hymnary.org//text/stand_up_stand_up_for_jesus_duffield
T:Stand Up, Stand Up for Jesus
T:This hymn is in the public domain.  You may freely use this score for personal and congregational worship.  If you reproduce the score, please credit Hymnary.org as the source. 
T:This hymn is in the public domain.  You may freely use this score for personal and congregational worship.  If you reproduce the score, please credit Hymnary.org as the source. 
Z:This hymn is in the public domain.  You may freely use this score for personal and congregational worship.  If you reproduce the score, please credit Hymnary.org as the source.
%%score ( 1 2 ) ( 3 4 )
L:1/8
M:4/4
K:Bb
V:1 treble nm="Piano" snm="Pno."
V:2 treble 
V:3 bass nm="Piano" snm="Pno."
V:4 bass 
V:1
 F2 | [DB]3 [DB] [Fd]2 [FB]2 | [GB]4 [EG]2 [GB]2 | F2 [FB]2 [Fc]2 [Fd]2 | [Fc]6 F2 | %5
w: 3~Stand|up, stand up for|Je- sus, stand|in his strength a-|lone; the|
w: 1~Stand|up, stand up for|Je- sus, you|sol- diers of the|cross, lift|
w: 2~Stand|up, stand up for|Je- sus, the|trum- pet call o-|bey; forth|
 [DB]3 [DB] [Fd]2 [FB]2 | [GB]4 [EG]2 [GB]2 | F2 [DB]2 [Fd]2 [Ec]2 | [DB]6 F2 | %9
w: arm of flesh will|fail you— you|dare not trust your|own; put|
w: high his roy- al|ban- ner, it|must not suf- fer|loss; from|
w: to the migh- ty|con- flict in|this his glo- rious|day. You|
 [Fc]3 [Fc] [FB]2 [Fc]2 | [Fd]4 [Fd]2 [Fd]2 | [Ee]2 [Fd]2 G2 [Gc]2 | (B4 A2) F2 | %13
w: on the gos- pel|ar- mor, each|piece put on with|prayer; _ where|
w: vic- tory un- to|vic- tory his|ar- my shall he|lead, _ till|
w: that are brave, now|serve him a-|gainst un- num- bered|foes; _ let|
 [DB]3 [DB] [Fd]2 [FB]2 | [GB]4 [EG]2 [GB]2 | F2 [DB]2 [Fd]2 [Ec]2 | [DB]6 |] %17
w: du- ty calls, or|dan- ger, be|ne- ver wan- ting|there.|
w: ev- ery foe is|van- quished and|Christ is Lord in-|deed.|
w: cour- age rise with|dan- ger, and|strength to strrength op-|pose.|
V:2
 F2 | x8 | x8 | F2 x6 | x6 F2 | x8 | x8 | F2 x6 | x6 F2 | x8 | x8 | x4 G2 x2 | F6 F2 | x8 | x8 | %15
 F2 x6 | x6 |] %17
V:3
 F,2 | [B,,F,]3 [B,,F,] [B,,B,]2 [D,B,]2 | [E,B,]4 [E,B,]2 [E,B,]2 | %3
 [D,B,]2 [D,B,]2 [C,A,]2 [B,,B,]2 | [F,A,]6 [F,A,]2 | [B,,B,]3 [B,,B,] [B,,B,]2 [D,B,]2 | %6
 [E,B,]4 [E,B,]2 [E,B,]2 | [D,B,]2 [B,,B,]2 [F,B,]2 [F,A,]2 | [B,,B,]6 F,2 | %9
 [F,A,]3 [F,A,] G,2 [F,A,]2 | B,4 B,2 B,2 | [G,B,]2 [F,B,]2 [E,B,]2 [C,E]2 | (D4 C2) [F,A,]2 | %13
 [B,,B,]3 [B,,B,] [B,,B,]2 [D,B,]2 | [E,B,]4 [E,B,]2 [E,B,]2 | [D,B,]2 [B,,B,]2 [F,B,]2 [F,A,]2 | %16
 [B,,B,]6 |] %17
V:4
 F,2 | x8 | x8 | x8 | x8 | x8 | x8 | x8 | x6 F,2 | x4 F,2 x2 | B,4 B,2 B,A, | x8 | F,6 x2 | x8 | %14
 x8 | x8 | x6 |] %17

